public/images/logo/typescript.svg

<svg width="12" height="12" viewBox="0 0 12 12" fill="none" xmlns="http://www.w3.org/2000/svg">
<path d="M10.8281 0H1.17188C0.524666 0 0 0.524666 0 1.17188V10.8281C0 11.4753 0.524666 12 1.17188 12H10.8281C11.4753 12 12 11.4753 12 10.8281V1.17188C12 0.524666 11.4753 0 10.8281 0Z" fill="currentColor"/>
<path d="M10.8281 0H1.17188C0.524666 0 0 0.524666 0 1.17188V10.8281C0 11.4753 0.524666 12 1.17188 12H10.8281C11.4753 12 12 11.4753 12 10.8281V1.17188C12 0.524666 11.4753 0 10.8281 0Z" fill="currentColor"/>
<path fill-rule="evenodd" clip-rule="evenodd" d="M7.42826 9.549V10.7223C7.61899 10.8201 7.84458 10.8934 8.10502 10.9423C8.36545 10.9912 8.63993 11.0156 8.92849 11.0156C9.20972 11.0156 9.47686 10.9887 9.72996 10.935C9.98306 10.8812 10.205 10.7926 10.3957 10.6691C10.5865 10.5457 10.7375 10.3844 10.8487 10.1851C10.96 9.98592 11.0156 9.73966 11.0156 9.44634C11.0156 9.23367 10.9838 9.0473 10.9203 8.8872C10.8567 8.72709 10.765 8.58471 10.6451 8.46005C10.5253 8.33538 10.3817 8.22354 10.2142 8.12454C10.0466 8.02554 9.85774 7.93205 9.64744 7.84406C9.49338 7.7805 9.35522 7.71879 9.23295 7.65891C9.11067 7.599 9.00675 7.5379 8.92116 7.47558C8.83556 7.41323 8.76954 7.34723 8.72309 7.27758C8.67663 7.2079 8.65338 7.12908 8.65338 7.04107C8.65338 6.96042 8.67417 6.8877 8.71575 6.82291C8.75733 6.75813 8.81602 6.70254 8.89181 6.65609C8.96763 6.60966 9.06054 6.57359 9.17058 6.54792C9.28064 6.52226 9.40289 6.50944 9.5374 6.50944C9.6352 6.50944 9.73852 6.51677 9.84734 6.53142C9.95616 6.54609 10.0656 6.56871 10.1756 6.59925C10.2857 6.62981 10.3927 6.66832 10.4966 6.71475C10.6005 6.7612 10.6965 6.81497 10.7845 6.87609V5.77978C10.606 5.71134 10.411 5.66062 10.1995 5.62762C9.98796 5.59462 9.74524 5.57812 9.47137 5.57812C9.19259 5.57812 8.92849 5.60808 8.67907 5.66796C8.42965 5.72784 8.21018 5.82134 8.02064 5.94844C7.83112 6.07556 7.68136 6.23749 7.57132 6.43427C7.46128 6.63103 7.40625 6.8663 7.40625 7.14007C7.40625 7.48962 7.50712 7.78784 7.70887 8.03473C7.9106 8.28159 8.21688 8.49059 8.62772 8.6617C8.78911 8.7277 8.93951 8.79246 9.07889 8.85602C9.21827 8.91959 9.33872 8.98559 9.44018 9.05402C9.54166 9.12246 9.62175 9.19702 9.68046 9.27769C9.73915 9.35834 9.76849 9.45 9.76849 9.55268C9.76849 9.62845 9.75014 9.69872 9.71346 9.7635C9.67678 9.82828 9.62114 9.88448 9.54656 9.93216C9.47198 9.97983 9.37905 10.0171 9.2678 10.044C9.15652 10.0709 9.02632 10.0843 8.87714 10.0843C8.62282 10.0843 8.37096 10.0397 8.12152 9.95048C7.87209 9.86128 7.641 9.72745 7.42826 9.549ZM5.45578 6.65817H6.96094V5.69531H2.76562V6.65817H4.26342V10.9453H5.45578V6.65817Z" fill="white"/>
</svg>

<svg width="12" height="12" fill="none" xmlns="http://www.w3.org/2000/svg"><path d="M10.828 0H1.172C.525 0 0 .525 0 1.172v9.656C0 11.475.525 12 1.172 12h9.656c.647 0 1.172-.525 1.172-1.172V1.172C12 .525 11.475 0 10.828 0z" fill="currentColor"/><path d="M10.828 0H1.172C.525 0 0 .525 0 1.172v9.656C0 11.475.525 12 1.172 12h9.656c.647 0 1.172-.525 1.172-1.172V1.172C12 .525 11.475 0 10.828 0z" fill="currentColor"/><path fill-rule="evenodd" clip-rule="evenodd" d="M7.428 9.549v1.173c.191.098.417.171.677.22.26.05.535.074.823.074.282 0 .549-.027.802-.081.253-.054.475-.142.666-.266.19-.123.341-.285.453-.484.111-.2.167-.445.167-.739a1.51 1.51 0 00-.096-.559 1.306 1.306 0 00-.275-.427 2.013 2.013 0 00-.43-.335 4.625 4.625 0 00-.568-.28 7.135 7.135 0 01-.414-.186 2.105 2.105 0 01-.312-.183.8.8 0 01-.198-.198.417.417 0 01-.07-.237c0-.08.021-.153.063-.218.041-.065.1-.12.176-.167a.942.942 0 01.279-.108c.11-.026.232-.039.366-.039a2.327 2.327 0 01.639.09c.11.03.217.07.32.116.104.046.2.1.288.161V5.78a2.864 2.864 0 00-.585-.152 4.768 4.768 0 00-.728-.05c-.278 0-.543.03-.792.09-.25.06-.469.153-.658.28-.19.128-.34.29-.45.486-.11.197-.165.432-.165.706 0 .35.101.648.303.895.202.247.508.456.919.627.161.066.312.13.45.194.14.064.26.13.362.198a.948.948 0 01.24.224.456.456 0 01.033.486.488.488 0 01-.166.168.915.915 0 01-.28.112c-.11.027-.24.04-.39.04a2.255 2.255 0 01-1.449-.535zm-1.972-2.89H6.96v-.964H2.766v.963h1.497v4.287h1.193V6.658z" fill="#fff"/></svg>
